flaticon/office/diploma-1.svg

<svg xmlns="http://www.w3.org/2000/svg" width="32" height="32" viewBox="0 0 24 24">
    <path d="M20.800781 14.199219C20.558594 14.199219 20.398438 14.359375 20.398438 14.597656 20.398438 15.480469 19.679688 16.199219 18.800781 16.199219 18.558594 16.199219 18.398438 16.359375 18.398438 16.597656 18.398438 16.839844 18.558594 17 18.800781 17 20.121094 17 21.199219 15.917969 21.199219 14.597656 21.199219 14.359375 21.039062 14.199219 20.800781 14.199219zM19.199219 12.597656C19.199219 12.359375 19.039062 12.199219 18.800781 12.199219 17.480469 12.199219 16.398438 13.277344 16.398438 14.597656 16.398438 14.839844 16.558594 15 16.800781 15 17.039062 15 17.199219 14.839844 17.199219 14.597656 17.199219 13.71875 17.921875 13 18.800781 13 19.039062 13 19.199219 12.839844 19.199219 12.597656zM19.199219 12.597656"/>
    <path d="M 23.601562 1.398438 L 0.398438 1.398438 C 0.160156 1.398438 0 1.558594 0 1.800781 L 0 19.398438 C 0 19.640625 0.160156 19.800781 0.398438 19.800781 L 16.800781 19.800781 L 16.800781 22.199219 C 16.800781 22.359375 16.878906 22.519531 17.039062 22.558594 C 17.199219 22.640625 17.359375 22.597656 17.480469 22.480469 L 18.800781 21.160156 L 20.121094 22.480469 C 20.199219 22.558594 20.28125 22.597656 20.398438 22.597656 C 20.441406 22.597656 20.519531 22.597656 20.601562 22.558594 C 20.761719 22.519531 20.839844 22.359375 20.839844 22.199219 L 20.839844 19.800781 L 23.601562 19.800781 C 23.839844 19.800781 24 19.640625 24 19.398438 L 24 1.800781 C 24 1.558594 23.839844 1.398438 23.601562 1.398438 Z M 18.800781 17.800781 C 18.035156 17.800781 17.332031 17.527344 16.777344 17.074219 C 16.753906 17.054688 16.730469 17.035156 16.707031 17.015625 C 16.703125 17.007812 16.695312 17.003906 16.6875 17 C 16.15625 16.523438 15.785156 15.886719 15.652344 15.179688 C 15.652344 15.164062 15.648438 15.144531 15.644531 15.128906 C 15.640625 15.105469 15.636719 15.082031 15.632812 15.054688 C 15.628906 15.019531 15.621094 14.980469 15.617188 14.941406 C 15.617188 14.925781 15.617188 14.910156 15.613281 14.894531 C 15.609375 14.859375 15.609375 14.824219 15.605469 14.785156 C 15.605469 14.773438 15.605469 14.757812 15.605469 14.742188 C 15.601562 14.695312 15.601562 14.648438 15.601562 14.597656 C 15.601562 12.839844 17.039062 11.398438 18.800781 11.398438 C 18.847656 11.398438 18.894531 11.402344 18.945312 11.402344 C 18.957031 11.402344 18.972656 11.402344 18.988281 11.40625 C 19.023438 11.40625 19.058594 11.410156 19.09375 11.414062 C 19.113281 11.414062 19.132812 11.417969 19.152344 11.417969 C 19.1875 11.421875 19.21875 11.425781 19.253906 11.433594 C 19.28125 11.4375 19.308594 11.441406 19.339844 11.445312 C 19.347656 11.449219 19.359375 11.449219 19.367188 11.449219 C 20.335938 11.628906 21.171875 12.253906 21.640625 13.160156 C 21.652344 13.1875 21.671875 13.210938 21.691406 13.234375 C 21.890625 13.648438 22 14.113281 22 14.597656 C 22 16.359375 20.558594 17.800781 18.800781 17.800781 Z M 21.601562 11.75 C 20.921875 11.082031 20.011719 10.65625 19 10.605469 C 18.933594 10.601562 18.867188 10.597656 18.800781 10.597656 C 16.601562 10.597656 14.800781 12.398438 14.800781 14.597656 C 14.800781 14.667969 14.800781 14.734375 14.804688 14.800781 C 14.855469 15.808594 15.285156 16.722656 15.953125 17.398438 L 3.960938 17.398438 C 3.800781 16.597656 3.199219 16 2.398438 15.839844 L 2.398438 5.359375 C 3.199219 5.199219 3.800781 4.597656 3.960938 3.800781 L 20.039062 3.800781 C 20.199219 4.597656 20.800781 5.199219 21.601562 5.359375 Z M 20 21.238281 L 19.078125 20.320312 C 19 20.238281 18.921875 20.199219 18.800781 20.199219 C 18.679688 20.199219 18.601562 20.238281 18.519531 20.320312 L 17.601562 21.238281 L 17.601562 18.4375 C 18.359375 18.679688 19.238281 18.679688 20 18.4375 Z M 23.199219 19 L 20.839844 19 L 20.839844 18.035156 C 22.011719 17.335938 22.800781 16.054688 22.800781 14.597656 C 22.800781 13.976562 22.65625 13.386719 22.398438 12.859375 L 22.398438 5 C 22.398438 4.757812 22.238281 4.597656 22 4.597656 C 21.320312 4.597656 20.800781 4.078125 20.800781 3.398438 C 20.800781 3.160156 20.640625 3 20.398438 3 L 3.601562 3 C 3.359375 3 3.199219 3.160156 3.199219 3.398438 C 3.199219 4.078125 2.679688 4.597656 2 4.597656 C 1.761719 4.597656 1.601562 4.757812 1.601562 5 L 1.601562 16.199219 C 1.601562 16.4375 1.761719 16.597656 2 16.597656 C 2.679688 16.597656 3.199219 17.117188 3.199219 17.800781 C 3.199219 18.039062 3.359375 18.199219 3.601562 18.199219 L 16.800781 18.199219 L 16.800781 19 L 0.800781 19 L 0.800781 2.199219 L 23.199219 2.199219 Z M 23.199219 19"/>
    <path d="M9.601562 6.199219L14.398438 6.199219C14.640625 6.199219 14.800781 6.039062 14.800781 5.800781 14.800781 5.558594 14.640625 5.398438 14.398438 5.398438L9.601562 5.398438C9.359375 5.398438 9.199219 5.558594 9.199219 5.800781 9.199219 6.039062 9.359375 6.199219 9.601562 6.199219zM18.398438 7.398438L5.601562 7.398438C5.359375 7.398438 5.199219 7.558594 5.199219 7.800781 5.199219 8.039062 5.359375 8.199219 5.601562 8.199219L18.398438 8.199219C18.640625 8.199219 18.800781 8.039062 18.800781 7.800781 18.800781 7.558594 18.640625 7.398438 18.398438 7.398438zM18.398438 9.398438L5.601562 9.398438C5.359375 9.398438 5.199219 9.558594 5.199219 9.800781 5.199219 10.039062 5.359375 10.199219 5.601562 10.199219L18.398438 10.199219C18.640625 10.199219 18.800781 10.039062 18.800781 9.800781 18.800781 9.558594 18.640625 9.398438 18.398438 9.398438zM13.601562 11.398438L8 11.398438C7.761719 11.398438 7.601562 11.558594 7.601562 11.800781 7.601562 12.039062 7.761719 12.199219 8 12.199219L13.601562 12.199219C13.839844 12.199219 14 12.039062 14 11.800781 14 11.558594 13.839844 11.398438 13.601562 11.398438zM5.601562 12.199219L6.398438 12.199219C6.640625 12.199219 6.800781 12.039062 6.800781 11.800781 6.800781 11.558594 6.640625 11.398438 6.398438 11.398438L5.601562 11.398438C5.359375 11.398438 5.199219 11.558594 5.199219 11.800781 5.199219 12.039062 5.359375 12.199219 5.601562 12.199219zM8.800781 13.398438L5.601562 13.398438C5.359375 13.398438 5.199219 13.558594 5.199219 13.800781 5.199219 14.039062 5.359375 14.199219 5.601562 14.199219L8.800781 14.199219C9.039062 14.199219 9.199219 14.039062 9.199219 13.800781 9.199219 13.558594 9.039062 13.398438 8.800781 13.398438zM13.601562 13.398438L10.398438 13.398438C10.160156 13.398438 10 13.558594 10 13.800781 10 14.039062 10.160156 14.199219 10.398438 14.199219L13.601562 14.199219C13.839844 14.199219 14 14.039062 14 13.800781 14 13.558594 13.839844 13.398438 13.601562 13.398438zM13.601562 13.398438"/>
</svg>

<svg xmlns="http://www.w3.org/2000/svg" width="32" height="32" viewBox="0 0 24 24">
    <path d="M20.8 14.2c-.241 0-.402.16-.402.398 0 .882-.718 1.601-1.597 1.601-.242 0-.403.16-.403.399 0 .242.16.402.403.402a2.407 2.407 0 0 0 2.398-2.402c0-.239-.16-.399-.398-.399zm0 0M19.2 12.598c0-.239-.16-.399-.4-.399a2.407 2.407 0 0 0-2.402 2.399c0 .242.16.402.403.402.238 0 .398-.16.398-.402 0-.88.723-1.598 1.602-1.598.238 0 .398-.16.398-.402zm0 0"/>
    <path d="M23.602 1.398H.398c-.238 0-.398.16-.398.403v17.597c0 .243.16.403.398.403h16.403v2.398c0 .16.078.32.238.36.16.082.32.039.441-.079l1.32-1.32 1.321 1.32c.078.079.16.118.277.118.043 0 .122 0 .204-.04.16-.038.238-.199.238-.359v-2.398h2.762c.238 0 .398-.16.398-.403V1.801c0-.242-.16-.403-.398-.403zM18.8 17.801a3.188 3.188 0 0 1-2.024-.727l-.07-.058c-.004-.008-.012-.012-.02-.016a3.262 3.262 0 0 1-1.054-1.945c-.004-.035-.012-.075-.016-.114 0-.015 0-.03-.004-.046-.004-.036-.004-.07-.008-.11v-.043c-.003-.047-.003-.094-.003-.144 0-1.758 1.437-3.2 3.199-3.2.047 0 .094.004.144.004.012 0 .028 0 .043.004.035 0 .07.004.106.008.02 0 .039.004.058.004a3.227 3.227 0 0 1 2.488 1.742c.012.027.032.05.051.074.2.414.309.88.309 1.364a3.212 3.212 0 0 1-3.2 3.203zm2.8-6.051A3.984 3.984 0 0 0 19 10.605a3.395 3.395 0 0 0-.2-.007 4.013 4.013 0 0 0-3.995 4.203 3.979 3.979 0 0 0 1.148 2.597H3.961a1.962 1.962 0 0 0-1.563-1.558V5.36C3.2 5.2 3.801 4.597 3.961 3.8h16.078c.16.798.762 1.4 1.563 1.56zM20 21.238l-.922-.918a.348.348 0 0 0-.277-.12c-.121 0-.2.038-.281.12l-.918.918v-2.8a4.05 4.05 0 0 0 2.398 0zM23.2 19h-2.36v-.965a4.007 4.007 0 0 0 1.96-3.437c0-.621-.144-1.211-.402-1.739V5c0-.242-.16-.402-.398-.402-.68 0-1.2-.52-1.2-1.2 0-.238-.16-.398-.402-.398H3.602c-.243 0-.403.16-.403.398 0 .68-.52 1.2-1.199 1.2-.238 0-.398.16-.398.402v11.2c0 .238.16.398.398.398.68 0 1.2.52 1.2 1.203 0 .238.16.398.402.398H16.8V19H.8V2.2h22.398zm0 0"/>
    <path d="M9.602 6.2h4.796c.243 0 .403-.16.403-.4 0-.241-.16-.402-.403-.402H9.602c-.243 0-.403.16-.403.403 0 .238.16.398.403.398zm0 0M18.398 7.398H5.602c-.243 0-.403.16-.403.403 0 .238.16.398.403.398h12.796c.243 0 .403-.16.403-.398 0-.242-.16-.403-.403-.403zm0 0M18.398 9.398H5.602c-.243 0-.403.16-.403.403 0 .238.16.398.403.398h12.796c.243 0 .403-.16.403-.398 0-.242-.16-.403-.403-.403zm0 0M13.602 11.398H8c-.238 0-.398.16-.398.403 0 .238.16.398.398.398h5.602c.238 0 .398-.16.398-.398 0-.242-.16-.403-.398-.403zm0 0M5.602 12.2h.796c.243 0 .403-.16.403-.4 0-.241-.16-.402-.403-.402h-.796c-.243 0-.403.16-.403.403 0 .238.16.398.403.398zm0 0M8.8 13.398H5.603c-.243 0-.403.16-.403.403 0 .238.16.398.403.398H8.8c.238 0 .398-.16.398-.398 0-.242-.16-.403-.398-.403zm0 0M13.602 13.398h-3.204c-.238 0-.398.16-.398.403 0 .238.16.398.398.398h3.204c.238 0 .398-.16.398-.398 0-.242-.16-.403-.398-.403zm0 0"/>
</svg>
